X:348
%%etbk:tnset id:104,pos:1,rep:3x,ant:
%%etbk:wsite http://www.thesession.org/tunes/display/1220
%%etbk:pldat 2015-01-24T13:33,2014-02-05T15:28,2013-11-24T14:33
T: Will You Come Home With Me?
H: Created 2013-02-19 /  Modified  2014-02-05
M: 6/8
L: 1/8
R: jig
K: Gmaj
|:!2!d!5!ge !4!fd!1!c | !3!B!5!dB !4!c!2!A!1!F| !1!GGG AcA| GGG !2!A!3!B!4!c|
!2!d!5!ge !4!fd!1!c | !3!B!5!dB !4!c!2!A!1!F| !1!GGG AcA| GGG GBc:|
|:!5!d2B !4!c2A| !3!BdB !4!c!2!A!1!F| !1!GGG AcA| !1!GGG ABc|
!5!d2B !4!c2A| !3!BdB cAF| GGG AcA|GAG GBc:|


